X:1
T:Georgetown, 10.10.10.10
T:Georgetown, 10.10.10.10
T:Hymns of Consecration and Faith, 1902
T:Public Domain Courtesy of the Cyber Hymnal™
C:Hymns of Consecration and Faith, 1902
Z:Public Domain
Z:Courtesy of the Cyber Hymnal™
%%score ( 1 2 ) ( 3 4 )
L:1/8
Q:1/4=114
M:4/4
K:Bb
V:1 treble 
V:2 treble 
V:3 bass 
V:4 bass 
V:1
 [DG]4 [EG]2 [DG]2 | [^FA]2 [FB]2 G2 [Gd]2 | [Ac]4 [GB]4 | [^FA]8 | [DG]4 [EG]2 [DG]2 | %5
 [^FA]2 [FB]2 G2 [EG]2 | [DG]4 [D^F]4 | [DG]8 | [Ge]4 [Gd]2 G2 | [^Fc]6 [Ac]2 | %10
 [GB]2 [^FA]2 G2 [GB]2 | [^FA]8 | [Gd]4 [Gc]2 G2 | [GB]2 G2 [EG]2 [Gc]2 | [GB]4 [^FA]4 | G8 |] %16
V:2
 x8 | x4 G2 x2 | x8 | x8 | x8 | x4 G2 x2 | x8 | x8 | x6 G2 | x8 | x4 G2 x2 | x8 | x6 G2 | %13
 x2 G2 x4 | x8 | G8 |] %16
V:3
 [G,B,]4 [G,C]2 [G,B,]2 | [D,C]2 [D,C]2 [G,B,]2 [B,D]2 | [^F,E]4 [G,D]4 | [D,D]8 | %4
 [G,B,]4 [G,C]2 [G,B,]2 | [D,C]2 [D,C]2 [E,B,]2 [C,C]2 | [D,B,]4 [D,C]4 | [G,B,]8 | %8
 C4 [B,D]2 [B,D]2 | [A,D]6 [^F,D]2 | [G,D]2 [D,C]2 [E,B,]2 [B,,D]2 | [D,D]8 | [B,D]4 [CE]2 [CE]2 | %13
 [G,D]2 [G,B,]2 [C,C]2 [C,E]2 | [D,D]4 [D,C]4 | [G,,B,]8 |] %16
V:4
 x8 | x8 | x8 | x8 | x8 | x8 | x8 | x8 | C4 x4 | x8 | x8 | x8 | x8 | x8 | x8 | x8 |] %16

